X:1
T:Сомнение
T:Сомнение
T:Глинка, Михаи́л (1804-1857)
T:Слова Н. Кукольника
T:public domain
T:public domain
T:public domain
T:public domain
C:М. Глинка
Z:public domain
%%score 1 { ( 2 4 ) | 3 }
L:1/8
Q:1/4=72
M:4/4
K:F
V:1 treble nm="Voice"
V:2 treble nm="Piano"
V:4 treble 
V:3 bass 
V:1
"^Andante mosso" z8 | z8 | z8 | z8 | z8 | z8 | z8 | z4 z2 z!p! F |: F2 FF F2 EE | E2 D2 z2 z D | %10
w: |||||||Уй-|ми- тесь, вол- не- ни- я|стра- сти, за-|
w: ||||||||Сон не- от- ступ- ный и|гроз- ный, мие|
 D2-!<(! (3DEF G2 GF!<)! |!>(! F2 E2!>)! z2 E2 | (DB) A2 z2 A2 | (FB) A2 z2 (^CD) | E2 FE G2 FE | %15
w: сни, * без- на- деж- но- е|серд- це, я|пла- * чу, я|страж- * ду, ду- *|ша у- то- ми- лась в~раз-|
w: снит- * ся со- пер- ник счаст-|ли- вый, и|тай- * но, и-|злоб- * но, ки- *|пя- ща- я рев- ность пы-|
 (F3 E) D2"^cresc." D2 | (^CB) A2 z2 A2 | (Ad) D2 z2 D2 | %18
w: лу- * ке~! Я|страж- * ду, я|пла- * чу, не|
w: ла- * ет~! И|тай- * но, и|злоб- * но, о-|
 D2 CB, (B,A,)[Q:1/4=36]!>(! !fermata!F>E |[Q:1/4=72] D2!>)! z2 z2!pp! F2 | (F^D) E2 z2 B2 | %21
w: вы- пла- кать го- * ря в~сле-|зах. На-|прас- * но на-|
w: ру- жи- я и- * щет ру-|ка. На-|прас- * но из-|
 (B^G) A2 z2"^cresc." F2 | (F^D) E2 z2 B2 | (B^G) A2 z2 A2 | (G^F) A2 z2 A2 | (G^F) A2 z2!f! A2 | %26
w: деж- * да мне|сча- * стье га-|да- * ет, не|ве- * рю, не|ве- * рю о-|
w: ме- * ну мне|рев- * ность га-|да- * ет, не|ве- * рю, не|ве- * рю ко-|
 (G^F) _E4 (DA,) |!>(! C2 B,2!>)! z2 A,2 |!<(! D2 DE E2!<)! FF |1!>(! (F4!>)! E2) z!p! E :|2 %30
w: бе- * там ко- *|вар- ным, раз-|лу- ка у- но- сит лю-|бовь~! _ Как|
w: вар- * ным на- *|ве- тям, я|счяст- лив- ты сно- ва- мо~\-||
!>(! (F4 E2)!>)! z!p! E || F2 FF F2 EE | E2 D2 z2 D2 | D2-!<(! (3DEF!<)! G2 GF | %34
w: \-~я _ Ми-|ну- ет пе- чадь- но- е|вре- мя, мы|сно- * ва об- ни- мем друг|
w: ||||
!>(! F2!>)! E2 z2 E2 | (EB) A2 z2 A2 | (FB) A2 z2 (^CD) | E2 FE G2 FE | (F3 E) D2"^cresc." D2 | %39
w: дру- га и|страст- * но, и|жар- * ко за- *|бьëт- ся вос- крес- ше- е|серд- * це, и|
w: |||||
 (^CB) A2 z2 A2 | (Ad) D4 D2 | D2 CB, (B,A,)[Q:1/4=36] !fermata!F>E |[Q:1/4=72] D2 z2 z4 | z8 | %44
w: страст- * но, и|жар- * ко с~у-|ста- ми со- льют- * ся у-|ста.||
w: |||||
 z8 | z8 | z8 | z8 | z8 |[Q:1/4=66] z8[Q:1/4=60] |[Q:1/4=50] z8 |] %51
w: |||||||
w: |||||||
V:2
"^(виолончель)" z2 (D2 F2 G2) | (A4 B2 c2 | d4) (Te4 | f4) z2 (!>!f2- | feb) z z2 (e2 | %5
"^" !turn!^cda) z z2 (d2 | ^cgec AB (3GEA) | (6:4:6z (FAdAF) (6:4:6z (DFAFD) |: %8
 (6:4:6z (A,DFDA,) (6:4:6z (G,^CECA,) | (6:4:6z (F,A,DA,F,) (6:4:6z (F,A,DA,F,) | %10
 (6:4:6z (F,A,D_A,F,) (6:4:6z (G,DGDG,) | (6:4:6z (G,CECG,) (6:4:6z (G,EGEG,) | %12
 (6:4:6z (A,EAEA,) (6:4:6z (A,EGEA,) | (6:4:6z (A,DFDA,) (6:4:6z (A,DFDA,) | %14
 (6:4:6z (B,EGEB,) (6:4:6z (A,EGEA,) | (6:4:6z (A,DFDA,) (6:4:6z (A,DADA,) | %16
 (6:4:6z (^CEAEC) (6:4:6z (EA^cAE) | (6:4:6z (DAdAD) (6:4:6z (DFdFD) | z DE B2 z !fermata!A>G | %19
 (6:4:6z (A,DFDA,) (6:4:6z (A,DFDA,) | (6:4:6z (B,CGCB,) (6:4:6z (B,CGCB,) | %21
 (6:4:6z (A,CFCA,) (6:4:6z (A,CFCA,) | (6:4:6z (B,CECB,) (6:4:6z (B,CECB,) | %23
 (6:4:6z (A,CFCA,) (6:4:6z (A,CACA,) | (6:4:6z (A,C^FCA,) (6:4:6z (A,CACA,) | %25
 (6:4:6z (A,C^FCA,) (6:4:6z (A,CACA,) | (6:4:6z (A,C^FCA,) (6:4:6z (A,CACA,) | %27
 (6:4:6z (B,DGDB,) (6:4:6z (A,D=FDA,) | (6:4:6z (^G,DFDG,) (6:4:6z (G,DFDG,) |1 %29
!>(! (6:4:6z (A,DFDA,)!>)! (6:4:6z (A,^CECA,) :|2!>(! (6:4:6z (A,DFDA,) (6:4:6z (A,^CE!>)!CA,) || %31
 (6:4:6z (A,DFDA,) (6:4:6z (G,^CECG,) | (6:4:6z (F,A,DA,F,) (6:4:6z (F,A,DA,F,) | %33
 (6:4:6z (F,A,D_A,F,) (6:4:6z (G,DGDG,) | (6:4:6z (G,CECG,) (6:4:6z (G,EGEG,) | %35
 (6:4:6z (A,EAEA,) (6:4:6z (A,EGEF) | (6:4:6z (A,DFDA,) (6:4:6z (A,DFDA,) | %37
 (6:4:6z (B,EGEB,) (6:4:6z (A,EGEA,) | (6:4:6z (A,DFDA,) (6:4:6z (A,DADA,) | %39
 (6:4:6z (^CEAEC) (6:4:6z (EA^cAE) | (6:4:6z (DAdAD) (6:4:6z (DFdFD) | %41
 z (DE B2) z!>(! !fermata!A>G!>)! | z2 (D2 F2"_Cresc." G2) | (A4 B2 c2) | d4 (Te4 | %45
 f4) z2 (!>!f2- | feb) z z2 (e2 | !invertedturn!^cda) z z2 (d2 |!<(! ^cgec!<)!!>(! AB (3GEA)!>)! | %49
"^rit."!<(! D4!<)!!>(! [Gd]4!>)! | !fermata!d8 |] %51
V:3
!p! (6:4:6(D,F,A,DA,F,) (6:4:6(D,F,A,DA,F,) | (6:4:6(C,E,A,CA,E,)!<(! (6:4:6(C,E,A,CA,E,)!<)! | %2
 (6:4:6(B,,D,F,B,F,D,) (6:4:6(B,,_D,E,G,E,B,,) | (6:4:6(A,,C,F,A,F,C,) A,,2"^dim." z2 | %4
 (6:4:6(G,,B,,D,E,D,B,,) G,,2 z2 | (6:4:6(A,,D,F,A,F,D,) A,,2 z2 |!>(! [A,,E,G,]6 z2!>)! | %7
 [D,,D,]4 [D,,D,]4 |:!p! [D,,D,]4 [D,,D,]4 | [D,,D,]4 [D,,D,]4 | %10
!<(! ([D,,D,]2 [C,,C,]2!<)! [=B,,,=B,,]4) |!>(! [C,,C,]4!>)! [C,,C,]4 | [^C,,^C,]4 [C,,C,]4 | %13
 [D,,D,]4 [D,,D,]4 | [D,,D,]4 [^C,,^C,]4 | [D,,D,]4"^cresc." [F,,F,]4 | [A,,A,]4 [G,,G,]4 | %17
 [F,,F,]4 [B,,B,]4 | [G,,G,]2 z2 z2!>(! !fermata!A,,2 | %19
 [D,,D,]2!>)! z2!pp!"^e poco a poco cresc." [D,,D,]4 | [C,,C,]4 [C,,C,]2 [E,,E,]2 | %21
 [F,,F,]4 [C,,C,]4 | [G,,G,]4 [C,,C,]2 [G,,G,]2 | [F,,F,]2 z2 ([_E,,_E,]4 | %24
 [D,,D,]2) z2 ([_E,,_E,]4 | [D,,D,]2) z2!f! ([_E,,_E,]4 | [D,,D,]2) z2 [^F,,^F,]4- | %27
!>(! [F,,F,]2 z2!>)! A,,2 z2 | B,,4!<(! [B,,,B,,]4!<)! |1 [A,,,A,,]2 z2 A,,4 :|2 %30
 [A,,,A,,]2 z2 (A,,4 ||!p! [D,,D,]4) [D,,D,]4 | [D,,D,]4 [D,,D,]4 | %33
!<(! ([D,,D,]2 [C,,C,]2!<)! [=B,,,=B,,]4) | [C,,C,]4 [C,,C,]4 | [^C,,^C,]4 [C,,C,]4 | %36
 [D,,D,]4 [D,,D,]4 | [D,,D,]4 [^C,,^C,]4 | [D,,D,]4"^cresc." [F,,F,]4 | [A,,A,]4 [G,,G,]4 | %40
 [F,,F,]4 [B,,B,]4 | [G,,G,]2 z2 z2 !fermata!A,,2 |!p! (6:4:6(D,F,A,DA,F,) (6:4:6(D,F,A,DA,F,) | %43
 (6:4:6(C,E,A,CA,E,) (6:4:6(C,E,A,CA,E,) | (6:4:6(B,,D,F,B,F,D,) (6:4:6(B,,_D,E,G,E,B,,) | %45
 (6:4:6(A,,C,F,A,F,C,) B,,2!p! z2 | (6:4:6(G,,B,,D,E,D,B,,) G,,2 z2 | %47
 (6:4:6(A,,D,F,A,F,D,) A,,2 z2 | [A,,E,G,]6 z2 | [D,F,A,]4 [D,B,]4 | !fermata![D,A,]8 |] %51
V:4
 x8 | x8 | x8 | x8 | x8 | x8 | x8 | x8 |: x8 | x8 | x8 | x8 | x8 | x8 | x8 | x8 | x8 | x8 | %18
 z4 z2 [A,^C]2 | x8 | x8 | x8 | x8 | x8 | x8 | x8 | x8 | x8 | x8 |1 x8 :|2 x8 || x8 | x8 | x8 | %34
 x8 | x8 | x8 | x8 | x8 | x8 | x8 | x6 [A,^C]2 | x8 | x8 | x8 | x8 | x8 | x8 | x8 | x4 (D3 E) | %50
 F8 |] %51

